!!!COM: Palestrina, Giovanni Perluigi da
!!!OPR: Missa In illo tempore
!!!OMD: Sanctus
!!!OTL: Pleni
**kern	**kern	**kern	**kern
*Ibass	*Itenor	*Icalto	*Icant
!Bassus	!Tenor	!Altus	!Cantus
*clefF4	*clefGv2	*clefG2	*clefG2
*k[]	*k[]	*k[]	*k[]
*A:aeo	*A:aeo	*A:aeo	*A:aeo
*M3/2	*M3/2	*M3/2	*M3/2
=38	=38	=38	=38
2E	2B	2e	2g#
2E	2B	2e	2g#
2E	2B	2e	2g#
=39	=39	=39	=39
1D	1d	1f#	1a
2G	2B	2g	2b
=40	=40	=40	=40
2C	2G	2e	2cc
1F	1A	2c	1a
.	.	2d	.
=41	=41	=41	=41
[1.E	1B	[1.e	1g#
.	2r	.	2r
=42	=42	=42	=42
1.E]	2.G#	1.e]	2.b
.	4G#	.	4b
.	2G#	.	2b
=43	=43	=43	=43
1r	1A	2.e	1cc
.	.	4e	.
2r	2G	2e	2b
=44	=44	=44	=44
1r	1F	2.f	4a
.	.	.	4b
.	.	.	4cc
.	.	4e	4a
2r	2G	2d	2b
=45	=45	=45	=45
1r	2A	2c	1a
.	1E	1B	.
2r	.	.	2g#
=46	=46	=46	=46
2.A	2r	2A	2a
.	2e	2r	2.cc
4A	.	.	.
2A	2e	2r	.
.	.	.	4b
=47	=47	=47	=47
2.c	2.e	1r	2a
.	.	.	2g
4B	4d	.	.
2A	2c	2r	2f
=48	=48	=48	=48
2G	2B	1r	2e
1F	2c	.	1a
.	2A	2r	.
=49	=49	=49	=49
1.E	1B	2e	1g#
.	.	2e	.
.	2E	2e	2r
=50	=50	=50	=50
1r	2E	2.g	2b
.	2E	.	2b
.	.	4f	.
2r	2G	4e	2b
.	.	4d	.
=51	=51	=51	=51
1r	2.A	2c	2.cc
.	.	2e	.
.	4G	.	4b
2r	2F	2f	2a
=52	=52	=52	=52
1r	2G	1e	2g
.	2A	.	1f
2r	2B	2d	.
=53	=53	=53	=53
2E	2c	2.e	1.e
2E	2B	.	.
.	.	4d	.
2E	2e	4c	.
.	.	4B	.
=54	=54	=54	=54
2.F	2d	1A	1r
.	2c	.	.
4E	.	.	.
2D	2B	2B	2r
=55	=55	=55	=55
2C	1A	2c	2a
1BB	.	1d	2b
.	2G#	.	2b
=56	=56	=56	=56
2AA	1A	2c	2.cc
2A	.	2e	.
.	.	.	4b
[2F	2r	2f	[2a
=57	=57	=57	=57
4F]	2A	2c	4a]
4E	.	.	4g
1D	2A	1d	1f
.	2A	.	.
=58	=58	=58	=58
2C	2.c	1G	2e
2E	.	.	2g
.	4B	.	.
2F	2A	2c	2f
=59	=59	=59	=59
2G	2G	2B	1e
1A	1F	2c	.
.	.	2r	2d
=60	=60	=60	=60
1.AA	1E	2A	2e
.	.	2A	2.c
.	2r	2A	.
.	.	.	4d
=61	=61	=61	=61
1AA	2A	1c	1.e
.	2A	.	.
2r	2A	2A	.
=62	=62	=62	=62
2A	1c	4A	2r
.	.	4B	.
2A	.	4c	2r
.	.	4d	.
2A	2A	4e	2a
.	.	4f	.
=63	=63	=63	=63
2.c	4A	2e	2a
.	4B	.	.
.	4c	1A	2a
4B	4d	.	.
2A	[2e	.	2cc
=64	=64	=64	=64
2G	2e]	2B	2b
1F	2A	2c	1a
.	2r	2d	.
=65	=65	=65	=65
2.E	2B	1e	2.g
.	2B	.	.
4F	.	.	4f
2G	2B	2r	2d
=66	=66	=66	=66
2C	2.c	2e	2e
4AA	.	2e	2r
4BB	4B	.	.
4C	2A	2e	2r
4D	.	.	.
=67	=67	=67	=67
2.E	2G	2.g	2b
.	1B	.	2b
4F	.	4f	.
2G	.	4e	2b
.	.	4d	.
=68	=68	=68	=68
2A	2.A	2c	2.cc
1F	.	1f	.
.	4G	.	4b
.	4A	.	2a
.	4B	.	.
=69	=69	=69	=69
2C	2c	2e	2g
1D	1A	1d	1f
=70	=70	=70	=70
1.AA	1.A	1.c#	1.e
==	==	==	==
*-	*-	*-	*-
!!!CDT: 1525/^1526/-1594/2/2
!!!OCY: Italia
!!!AGN: Mass (Parody)
!!!AST: renaissance, vocal
!!!ASW: Motet 1518 (Moulu)
!!!PWK: Masses, Book 10
!!!RNB: Cadence finals: E,G,C
!!!YOR: Le Opere Complete, v. 27, p. 1
!!!YOO: Rome, Italy: Fratelli Scalera
!!!END: 1992//
!!!EED: John Miller
!!!YEC: Copyright 2000, John Miller
!!!YEN: United States of America
!!!YEM: Rights to all derivative electronic formats reserved.
!!!YEM: Refer to licensing agreement for further details.
!!!YEM: This file must be accompanied by the licensing agreement.
!!!YEM: A copy of the licensing agreement may be found at http://www.music-cog.ohio-state.edu/HumdrumDatabases/Palestrina/license.txt
!!!EMD: converted to Humdrum by Bret Aarden
